app/images/dist/footer-photo-2.svg

<svg width="44" height="32" viewBox="0 0 44 32" fill="none" xmlns="http://www.w3.org/2000/svg">
<path d="M37.2479 2.65263C34.4434 1.42484 31.4361 0.520263 28.2918 0.00217332C28.2346 -0.00782564 28.1774 0.0171623 28.1479 0.0671394C27.7611 0.723494 27.3327 1.57976 27.0327 2.25279C23.6507 1.76969 20.2862 1.76969 16.9736 2.25279C16.6735 1.5648 16.2296 0.723494 15.8411 0.0671394C15.8116 0.0188298 15.7544 -0.00615816 15.6971 0.00217332C12.5545 0.518607 9.54719 1.42318 6.74105 2.65263C6.71675 2.66262 6.69593 2.67929 6.68211 2.70093C0.977885 10.8322 -0.584742 18.7636 0.18183 26.5967C0.185299 26.635 0.207845 26.6717 0.239063 26.695C4.00255 29.3321 7.64813 30.933 11.226 31.9942C11.2833 32.0108 11.3439 31.9909 11.3804 31.9459C12.2267 30.8431 12.9812 29.6803 13.628 28.4575C13.6662 28.3858 13.6298 28.3009 13.5518 28.2726C12.3551 27.8394 11.2156 27.3113 10.1195 26.7116C10.0328 26.6633 10.0259 26.545 10.1056 26.4884C10.3363 26.3234 10.567 26.1518 10.7873 25.9786C10.8271 25.947 10.8826 25.9403 10.9295 25.9603C18.1304 29.0972 25.9262 29.0972 33.0421 25.9603C33.0889 25.9386 33.1445 25.9453 33.186 25.9769C33.4064 26.1502 33.637 26.3234 33.8694 26.4884C33.9492 26.545 33.944 26.6633 33.8573 26.7116C32.7612 27.323 31.6217 27.8394 30.4233 28.2709C30.3452 28.2992 30.3105 28.3858 30.3487 28.4575C31.0095 29.6786 31.7639 30.8414 32.5946 31.9442C32.6293 31.9909 32.6918 32.0108 32.749 31.9942C36.3442 30.933 39.9898 29.3321 43.7533 26.695C43.7863 26.6717 43.8071 26.6367 43.8106 26.5983C44.728 17.5424 42.2739 9.67608 37.3051 2.70259C37.2929 2.67929 37.2722 2.66262 37.2479 2.65263ZM14.7034 21.8272C12.5354 21.8272 10.7491 19.9281 10.7491 17.5958C10.7491 15.2635 12.5008 13.3644 14.7034 13.3644C16.9233 13.3644 18.6923 15.2802 18.6576 17.5958C18.6576 19.9281 16.9059 21.8272 14.7034 21.8272ZM29.3237 21.8272C27.1558 21.8272 25.3695 19.9281 25.3695 17.5958C25.3695 15.2635 27.1211 13.3644 29.3237 13.3644C31.5437 13.3644 33.3126 15.2802 33.278 17.5958C33.278 19.9281 31.5437 21.8272 29.3237 21.8272Z" fill="white"/>
</svg>

<svg width="44" height="32" fill="none" xmlns="http://www.w3.org/2000/svg"><path d="M37.248 2.653a37.569 37.569 0 00-8.956-2.65.138.138 0 00-.144.064 23.654 23.654 0 00-1.115 2.186 35.089 35.089 0 00-10.06 0c-.3-.688-.743-1.53-1.132-2.186a.144.144 0 00-.144-.065 37.462 37.462 0 00-8.956 2.65.127.127 0 00-.059.049C.978 10.832-.585 18.764.182 26.597a.143.143 0 00.057.098 37.198 37.198 0 0010.987 5.3.146.146 0 00.154-.05 24.712 24.712 0 002.248-3.488c.038-.071.002-.156-.076-.184a24.564 24.564 0 01-3.432-1.561.131.131 0 01-.014-.224c.23-.165.461-.336.681-.51a.141.141 0 01.143-.018c7.2 3.137 14.996 3.137 22.112 0a.14.14 0 01.144.017c.22.173.451.346.683.511a.131.131 0 01-.012.224 23.043 23.043 0 01-3.434 1.559.132.132 0 00-.074.186 27.752 27.752 0 002.246 3.487.143.143 0 00.154.05 37.077 37.077 0 0011.004-5.299.134.134 0 00.058-.097c.917-9.056-1.537-16.922-6.506-23.895a.11.11 0 00-.057-.05zM14.703 21.827c-2.168 0-3.954-1.899-3.954-4.231s1.752-4.232 3.954-4.232c2.22 0 3.99 1.916 3.955 4.232 0 2.332-1.752 4.231-3.955 4.231zm14.62 0c-2.167 0-3.954-1.899-3.954-4.231s1.752-4.232 3.955-4.232c2.22 0 3.989 1.916 3.954 4.232 0 2.332-1.734 4.231-3.954 4.231z" fill="#fff"/></svg>
